resources/img/achievements/grumpie.svg

<?xml version="1.0" encoding="UTF-8" standalone="no"?>
<svg
   xmlns:dc="http://purl.org/dc/elements/1.1/"
   xmlns:cc="http://creativecommons.org/ns#"
   xmlns:rdf="http://www.w3.org/1999/02/22-rdf-syntax-ns#"
   xmlns:svg="http://www.w3.org/2000/svg"
   xmlns="http://www.w3.org/2000/svg"
   xmlns:sodipodi="http://sodipodi.sourceforge.net/DTD/sodipodi-0.dtd"
   xmlns:inkscape="http://www.inkscape.org/namespaces/inkscape"
   version="1.1"
   id="svg2"
   width="64"
   height="64"
   viewBox="0 0 64 64"
   sodipodi:docname="grumpie.svg"
   inkscape:version="1.0.1 (3bc2e813f5, 2020-09-07)">
  <metadata
     id="metadata8">
    <rdf:RDF>
      <cc:Work
         rdf:about="">
        <dc:format>image/svg+xml</dc:format>
        <dc:type
           rdf:resource="http://purl.org/dc/dcmitype/StillImage" />
        <dc:title />
        <cc:license
           rdf:resource="http://creativecommons.org/licenses/by/4.0/" />
      </cc:Work>
      <cc:License
         rdf:about="http://creativecommons.org/licenses/by/4.0/">
        <cc:permits
           rdf:resource="http://creativecommons.org/ns#Reproduction" />
        <cc:permits
           rdf:resource="http://creativecommons.org/ns#Distribution" />
        <cc:requires
           rdf:resource="http://creativecommons.org/ns#Notice" />
        <cc:requires
           rdf:resource="http://creativecommons.org/ns#Attribution" />
        <cc:permits
           rdf:resource="http://creativecommons.org/ns#DerivativeWorks" />
      </cc:License>
    </rdf:RDF>
  </metadata>
  <defs
     id="defs6" />
  <sodipodi:namedview
     pagecolor="#686868"
     bordercolor="#000000"
     borderopacity="1"
     objecttolerance="10"
     gridtolerance="10"
     guidetolerance="10"
     inkscape:pageopacity="0"
     inkscape:pageshadow="2"
     inkscape:window-width="1920"
     inkscape:window-height="1136"
     id="namedview4"
     showgrid="true"
     inkscape:pagecheckerboard="false"
     showguides="true"
     inkscape:guide-bbox="true"
     inkscape:snap-object-midpoints="true"
     inkscape:snap-others="true"
     inkscape:object-nodes="false"
     inkscape:snap-nodes="false"
     inkscape:zoom="7.375"
     inkscape:cx="34.070187"
     inkscape:cy="31.958955"
     inkscape:window-x="0"
     inkscape:window-y="27"
     inkscape:window-maximized="1"
     inkscape:current-layer="g8"
     inkscape:document-rotation="0"
     showborder="true"
     borderlayer="true"
     inkscape:showpageshadow="false"
     inkscape:snap-global="false"
     inkscape:snap-center="true">
    <inkscape:grid
       type="xygrid"
       id="grid4526"
       dotted="false"
       empspacing="8"
       snapvisiblegridlinesonly="true" />
    <sodipodi:guide
       position="32,69.288136"
       orientation="1,0"
       id="guide838"
       inkscape:locked="false" />
    <sodipodi:guide
       position="60.338983,96"
       orientation="0,1"
       id="guide842"
       inkscape:locked="false" />
  </sodipodi:namedview>
  <g
     id="g8"
     transform="matrix(1.0948648,0,0,1.0948648,18.903531,19.700807)"
     style="opacity:0.65;fill:#ffffff;fill-opacity:1">
    <path
       d="m 11.993976,13.008341 c -2.0756616,0 -3.8854761,1.134969 -4.8568451,2.811859 -0.1942733,0.337422 0.061348,0.76687 0.4498971,0.76687 h 8.813896 c 0.388547,0 0.64417,-0.429448 0.449897,-0.76687 -0.971369,-1.67689 -2.781183,-2.811859 -4.856845,-2.811859 z M 8.2618737,10.932679 8.8037954,10.390758 9.345718,10.932679 c 0.2965217,0.296523 0.787319,0.296523 1.083842,0 0.296524,-0.296523 0.296524,-0.78732 0,-1.083842 L 9.8876391,9.3069149 10.42956,8.7649933 c 0.296524,-0.2965233 0.296524,-0.7873199 0,-1.0838432 -0.296523,-0.2965233 -0.7873203,-0.2965233 -1.083842,0 L 8.8037954,8.2230717 8.2618737,7.6811501 c -0.2965222,-0.2965233 -0.78732,-0.2965233 -1.0838432,0 -0.2965233,0.2965233 -0.2965233,0.7873199 0,1.0838432 L 7.7199521,9.3069149 7.1780305,9.848837 c -0.2965233,0.296522 -0.2965233,0.787319 0,1.083842 0.2965232,0.296523 0.787321,0.296523 1.0838432,0 z M 11.98375,1.2496653 c -5.6441644,0 -10.2147105,4.5705471 -10.2147105,10.2249357 0,5.65439 4.5705461,10.224936 10.2147105,10.224936 5.644165,0 10.235162,-4.570546 10.235162,-10.224936 0,-5.6543886 -4.580771,-10.2249357 -10.235162,-10.2249357 z m 0.01019,18.4048857 c -4.5194232,0 -8.1799504,-3.660528 -8.1799504,-8.17995 0,-4.5194216 3.6605272,-8.1799489 8.1799504,-8.1799489 4.519421,0 8.179948,3.6605273 8.179948,8.1799489 0,4.519422 -3.660527,8.17995 -8.179948,8.17995 z M 15.726037,7.6811501 15.184115,8.2230717 14.642194,7.6811501 c -0.296523,-0.2965233 -0.78732,-0.2965233 -1.083844,0 -0.296523,0.2965233 -0.296523,0.7873199 0,1.0838432 L 14.100272,9.3069149 13.55835,9.848837 c -0.296523,0.296522 -0.296523,0.787319 0,1.083842 0.296524,0.296523 0.787321,0.296523 1.083844,0 l 0.541921,-0.541921 0.541922,0.541921 c 0.296524,0.296523 0.78732,0.296523 1.083843,0 0.296524,-0.296523 0.296524,-0.78732 0,-1.083842 L 16.267992,9.3069149 16.809914,8.7649933 c 0.296523,-0.2965233 0.296523,-0.7873199 0,-1.0838432 -0.296523,-0.2965233 -0.78732,-0.2965233 -1.083843,0 z"
       id="path4"
       style="stroke-width:1.0225;fill:#17152c;fill-opacity:1" />
  </g>
</svg>

<svg xmlns="http://www.w3.org/2000/svg" width="64" height="64"><g style="opacity:.65;fill:#fff;fill-opacity:1"><path d="M11.994 13.008a5.612 5.612 0 0 0-4.857 2.812.518.518 0 0 0 .45.767h8.814c.388 0 .644-.43.45-.767a5.612 5.612 0 0 0-4.857-2.812zm-3.732-2.075.542-.542.542.542a.771.771 0 0 0 1.084 0 .771.771 0 0 0 0-1.084l-.542-.542.542-.542a.771.771 0 0 0 0-1.084.771.771 0 0 0-1.084 0l-.542.542-.542-.542a.771.771 0 0 0-1.084 0 .771.771 0 0 0 0 1.084l.542.542-.542.542a.771.771 0 0 0 0 1.084.771.771 0 0 0 1.084 0zm3.722-9.683C6.34 1.25 1.769 5.82 1.769 11.475c0 5.654 4.57 10.225 10.215 10.225 5.644 0 10.235-4.571 10.235-10.225 0-5.655-4.58-10.225-10.235-10.225zm.01 18.405c-4.52 0-8.18-3.661-8.18-8.18 0-4.52 3.66-8.18 8.18-8.18s8.18 3.66 8.18 8.18c0 4.519-3.66 8.18-8.18 8.18zM15.726 7.68l-.542.542-.542-.542a.771.771 0 0 0-1.084 0 .771.771 0 0 0 0 1.084l.542.542-.542.542a.771.771 0 0 0 0 1.084.771.771 0 0 0 1.084 0l.542-.542.542.542a.771.771 0 0 0 1.084 0 .771.771 0 0 0 0-1.084l-.542-.542.542-.542a.771.771 0 0 0 0-1.084.771.771 0 0 0-1.084 0z" style="stroke-width:1.0225;fill:#17152c;fill-opacity:1" transform="matrix(1.09486 0 0 1.09486 18.904 19.7)"/></g></svg>
